X:1
T:Resurrection Morning
T:Wililam Owen Jones, 1917
T:Resurrection Morning
T:Public Domain
T:Public Domain
T:Public Domain
C:Wililam Owen Jones, 1917
Z:Public Domain
%%score ( 1 2 ) ( 3 4 )
L:1/8
M:4/4
K:A
V:1 treble 
V:2 treble 
V:3 bass 
V:4 bass 
V:1
 [Ec][DB] | [CA][CA][Ec][DB] [CA][CA][DF][EG] | [FA][^EG][FA][DF] [C=E]2 [Fd][Ec] | %3
w: 1.~On the|re- sur- rect- ion morn- ing when our|Lord shall come a- gain, We shall|
w: 2.~On the|re- sur- rect- ion morn- ing we shall|see His glo- ry bright, We shall|
w: 3.~How the|loved who left us lone- ly, will re-|joice to see us there! We shall|
 [DB]6 [Ec][DB] | [CA]6 [Ec][DB] | [CA][CA][Ec][DB] [CA][CA][DF][EG] | %6
w: rise, we shall|rise; In the|dawn- ing of that morn- ing, see the|
w: rise, we shall|rise; Hail our|Sav- ior King for- ev- er, robed in|
w: rise, we shall|rise; O what|sing- ing, O what shout- ing when we|
 [FA][^EG][FA][DF] [C=E]2 [Fd][Fd] | [Ec]6 [DB][DE] | [CA]6 ||"^Refrain" z2 | %10
w: Lamb for sin- ners slain: We shall|rise, we shall|rise.||
w: ma- jes- ty and might, We shall|rise, we shall|rise.||
w: meet them in the air! We shall|rise, we shall|rise.||
 z2 [Ec]>[Ec] [Ec][DB][CA][DB] | [Ec]2 [Fd]2 [GB]2 ed | (z2 E>E E2) [DB][CA] | [DG][DF][^DG][DA] | %14
w: hal- le- lu- jah! we shall|rise with Him In the|* * * air; On|* re- sur- rect-|
w: ||||
w: ||||
 [EB]E[^Ec][EB] | [CA][EB][Ec][Ed] [Ae][Ec][=Ge][Fd] | [Ec]6 [GBe]2 | A6 x2 |] x6 |] %19
w: ion morn- ing We|greet our Lord re- turn- ing, Ev- er-|more to|reign.||
w: |||||
w: |||||
V:2
 x2 | x8 | x8 | x8 | x8 | x8 | x8 | x8 | x6 || x2 | x8 | x8 | c6 x2 | x4 | x ^E x2 | x8 | x8 | %17
w: ||||||||||||the||shall|||
 A6 x2 |] x6 |] %19
w: ||
V:3
 [A,,A,][A,,E,] | [A,,E,][A,,E,][A,,A,][A,,E,] [A,,E,][A,,E,][A,,A,][A,,A,] | %2
w: ~ ~|~ ~ ~ ~ ~ ~ ~ ~|
 [D,A,][D,A,][D,A,][D,A,] [A,,A,]2 z2 | z2 [E,G,][E,G,] [E,G,]2 z2 | %4
w: ~ ~ ~ ~ ~|We shall rise,|
 z2 [A,,A,][A,,F,] [A,,E,]2 [A,,A,][A,,E,] | %5
w: We shall rise, ~ ~|
 [A,,E,][A,,E,][A,,A,][A,,E,] [A,,E,][A,,E,][A,,A,][A,,A,] | [D,A,][D,B,][D,A,][F,A,] A,2 z2 | %7
w: ~ ~ ~ ~ ~ ~ ~ ~|~ ~ ~ ~ ~|
 z2 [E,A,][E,A,] [E,A,]2 [E,G,][E,B,] | [A,,A,]6 || E,C, | [A,,A,] z A,>A, A,[E,G,]F,[E,G,] | %11
w: shall rise, ~ ~ ~|We|shall rise,|~ ~ ~ ~ ~ ~ ~|
 A,2 [D,A,]2 [E,D]2 CB, | z2 A,>A, A,2 [E,G,][F,A,] | [D,A,][D,A,][B,,B,][B,,F,] | %14
w: the air: ~ ~ ~|~ ~ ~ ~ ~|* ~ ~ ~|
 [E,A,][D,G,][C,G,][C,G,] | F,[E,G,]A,[A,B,] [A,C]A,C,D, | z2 A,C E2 [F,D]2 | x8 |] [A,,C]6 |] %19
w: ~ ~ ~ ~|~ ~ Ev- er- more to reign. *||||
V:4
 x2 | x8 | x8 | x8 | x8 | x8 | x4 A,2 x2 | x8 | x6 || E,C, | x2 A,>A, A,F, x2 | A,2 x6 | A,6 x2 | %13
w: ||||||We|||~ ~|~ ~ ~ in|~|~|
 x4 | x4 | F,A, x A, A,2 x2 | E,6 x2 | x8 |] x6 |] %19
w: ||||||

